X: 1436
T: The Drummond Lasses
M:C|
L:1/8
N:"collected by McFadden"
B:O'Neill's 1436
Z:"Transcribed by Bob Safranek, rjs@gsp.org"
Z:Ornament (~) is a turn.
K:G
G2 (BG) dGBG      | G2 (BG) EAAF    | G2 (BG) dGBd | cABG (EG) G2 |
G2 (BG) dGBG      | dGBG    EAAF    | G2 (Bc) dege | dBAG (EG) G2 ||
gfed ((3Bcd) (ef) | gfed    eaag    | gfed    BcdB | cABG  EGGd   |
gfed ((3Bcd) (ef) | gfed   (ea) ~a2 | bgaf    gedB | cABG (EG) G2 |]


